X:315
T:Bonnie Galloway
M:3/4
L:1/8
S:Jody Stecher, "Snake Baked a Hoecake"
R:Waltz
K:G
|z2 D2E2|:G3A G2|G2E2G2|A3B A2|A2B2c2|d4 de|d4 de|d2c2B2| A6 |1 z2 D2 E2:|
|2 z2 d2 e2|: g6|z2 e2 g2|c6 | z2 B2 c2 | e6| z2 d2 e2 | A6| z2 D2 E2 |
|G3A G2|G2E2G2|A3B A2|A2B2c2|d4 de|d4 de|d2c2B2|1 A6 |z2 d2 e2:|2 A6 ||

